X:16775
T:The Golden Rooster
M:4/4
L:1/8
K:G
D2|DGGF GABG|EAA^G ABcA|FDFA d3c|BcAB GDB,C|
DGGF GABG|EAA^G ABcA|FDFA d3c|BGAF G2:|
K:D
FG|AAFA dded|BBGB eefe|ccAc egfe|dcBA GEFG|
AAFA dded|BBGB eefg|afdA gecA|d2f2 d2:|
